!!!COM: Lassus, Orlandus
!!!CDT: 1532-1594/06/14
!!!OPR: Geistliche Psalmen mit dreyen Stimmen
!!!ONM: 29
!!!OTL@@LA: Exaltabo te Domine
!!!OTL-incipit@@DE: Ich wil dich Herr gebürlich loben
**kern	**text	**kern	**text	**kern	**text
*staff3	*staff3	*staff2	*staff2	*staff1	*staff1
*Ivox	*	*Ivox	*	*Ivox	*
*I"Bassus	*	*I"Tenor	*	*I"Cantus	*
*I'B	*	*I'T	*	*I'C	*
*clefC4	*	*clefC3	*	*clefC1	*
*k[]	*	*k[]	*	*k[]	*
*d:dor	*	*d:dor	*	*d:dor	*
*M2/1	*	*M2/1	*	*M2/1	*
*met(C|)	*	*met(C|)	*	*met(C|)	*
*MM180	*	*MM180	*	*MM180	*
=1	=1	=1	=1	=1	=1
*xywh-#155:150,54,2718,537	*	*xywh-#99:129,63,2689,507	*	*xywh-#39:128,53,2737,525	*
0r	.	1r	.	1.a	Ich
.	.	1d	Ich	.	.
.	.	.	.	2a	wil
=2	=2	=2	=2	=2	=2
1r	.	2d	wil	2b	dich
.	.	2e	dich	2cc	Herr
!LO:TX:a:i:t=c.f.	!	!	!	!	!
1D	Ich	2f	Herr	2a	ge-
.	.	2d	ge-	4f	-bür-
.	.	.	.	4g	.
=3	=3	=3	=3	=3	=3
2D	wil	2f	-bür-	4a	.
.	.	.	.	4b	.
2E	dich	2g	-lich	2cc	.
2F	Herr	4c	lo-	4a	-lich
.	.	4A	.	4f	.
2D	ge-	1f	.	2a	.
=4	=4	=4	=4	=4	=4
!! cadence start
2F	-bür-	.	.	2a	lo-
2G	-lich	4e	.	4g	.
.	.	4d	.	4f	.
1A	lo-	4c#	.	4e	.
.	.	2d	.	4f	.
.	.	.	.	2e	.
.	.	4c#X	.	.	.
=5	=5	=5	=5	=5	=5
*	*	*xywh-#99:118,517,2689,380	*	*xywh-#39:122,545,2731,363	*
1D	-ben/	2d	-ben/	2f	-ben/
!! cadence end; ultima=d
.	.	2f	denn	2a	denn
2r	.	1f	du	2a	du
2d	denn	.	.	2a	hast
=6	=6	=6	=6	=6	=6
2d	du	1f	hast	4b-	mich
.	.	.	.	4a	.
2d	hast	.	.	4a	.
.	.	.	.	8g	.
.	.	.	.	8f	.
2c	mich	2e	mich	2g	.
2A	ge-	2e	ge-	2c	ge-
=7	=7	=7	=7	=7	=7
!! cadence start
*	*	*lig	*	*	*
1G	-nom-	1B	-nom-	2d	-nom-
.	.	.	.	2.e	-men
*xywh-#155:137,566,2723,456	*	*	*	*	*
1F	-men	1A	.	.	.
.	.	.	.	8d	.
.	.	.	.	8c	.
.	.	.	.	2d	.
*	*	*Xlig	*	*	*
=8	=8	=8	=8	=8	=8
1E	an/	2B	-men	2g	an/
!! cadence end; ultima=e
.	.	2c	an/	2e	hast
2r	.	2A	hast	2e	nicht
2D	hast	2A	nicht	1f	dem
=9	=9	=9	=9	=9	=9
2D	nicht	2B	den	.	.
2E	dem	2c	feind	4e	.
.	.	.	.	4d	.
*	*	*	*	*xywh-#39:115,865,2722,400	*
2F	feind	2A	in	2c	.
2D	in	1f	sei-	2d	feind
=10	=10	=10	=10	=10	=10
2F	sei-	.	.	2a	in
2G	-nem	1e	-nem	1g	sei-
!! cadence start
0A	to-	.	.	.	.
.	.	2.d	to-	2f	-nem
=11	=11	=11	=11	=11	=11
.	.	.	.	1e	to-
.	.	8c#i	.	.	.
.	.	8B	.	.	.
.	.	2c#i	.	.	.
1D	-ben/	2d	-ben/	2f	-ben/
!! cadence end; ultima=d
*	*	*xywh-#99:109,861,2691,382	*	*	*
.	.	2f	zum	2a	zum
=12	=12	=12	=12	=12	=12
2r	.	1f	freu-	2a	frew-
2d	zum	.	.	2a	-den
2d	frew-	1f	-den-	4b-	spot
.	.	.	.	4a	.
2d	-den-	.	.	4a	.
.	.	.	.	8g	.
.	.	.	.	8f	.
=13	=13	=13	=13	=13	=13
2c	-spott	2e	-spott	2g	.
2A	mich	2e	mich	2c	mich
!! cadence start
1G	wer-	1B	wer-	2d	wer-
.	.	.	.	2.e	-den
=14	=14	=14	=14	=14	=14
1F	-den	2.A	-den	.	.
.	.	.	.	8d	.
.	.	.	.	8c	.
.	.	.	.	2d	.
.	.	4B	.	.	.
*	*	*	*	*xywh-#39:106,1223,2728,369	*
1E	lan/	4c	.	2e	lan/
!! cadence end; ultima=e
.	.	4B	.	.	.
.	.	2e	.	2g	da
=15	=15	=15	=15	=15	=15
2r	.	2d	lan/	2a	mir
2G	da	4r	.	2b	war
.	.	4d	da	.	.
*xywh-#155:130,978,2754,440	*	*	*	*	*
2A	mir	2c	mir	2cc	ei-
2B	war	2d	war	1g	-lend
=16	=16	=16	=16	=16	=16
2c	ei-	2e	ei-	.	.
2c	-lend	2A	-lend	2e	u-
!! cadence start
2B	u-	2d	u-	2g	-ber-
2A	-ber-	4e	-ber-	2.cc	-kom-
.	.	2e	-kom-	.	.
=17	=17	=17	=17	=17	=17
1G	-kom-	.	.	.	.
.	.	8d	.	8b	.
.	.	8c	.	8a	.
.	.	2d	.	2b	.
*	*	*xywh-#99:109,1186,2678,438	*	*	*
1A	-men/	1c	men/	2e	-men/
!! cadence end; utlima=c
.	.	.	.	2cc	schreit
=18	=18	=18	=18	=18	=18
2r	.	4r	.	2b	ich
.	.	2g	scheit	.	.
2d	schreit	.	.	2.a	zu
.	.	2f	ich	.	.
2c	ich	.	.	.	.
.	.	2e	zu	4g	dir
2B	zu	.	.	2g	mein
.	.	4d	dir	.	.
=19	=19	=19	=19	=19	=19
2A	dir	2e	mein	2cc	Gott
*	*	*	*	*lig	*
2B	mein	2E	Got	1g	und
!! cadence start
1c	Got	1e	uñ	.	.
.	.	.	.	2.a	.
*	*	*	*	*Xlig	*
=20	=20	=20	=20	=20	=20
1B	uñ	1E	Herr	.	.
.	.	.	.	8g#i	.
.	.	.	.	8f#i	.
.	.	.	.	2g#i	.
*	*	*	*	*xywh-#39:104,1569,2720,371	*
1A	Herr/	2r	.	2a	Herr/
!! cadence end; ultima=a
.	.	2e	du	2cc	du
=21	=21	=21	=21	=21	=21
2r	.	2A	hast	2cc	hast
2c	du	2A	auch	2cc	auch
2c	hast	2F	mei-	2a	mei-
2c	auch	2E	-ne	2g	-ne
=22	=22	=22	=22	=22	=22
2A	mei-	1e	bitt	2cc	bitt
2G	-ne	.	.	2b	ver-
*xywh-#155:121,1376,2734,460	*	*	*	*	*
!! cadence start
2F	bitt	2A	ver-	2.cc	-nom-
2A	ver-	2.f	-nom-	.	.
.	.	.	.	4a	.
=23	=23	=23	=23	=23	=23
1G	-nom-	.	.	1b-	.
.	.	8e	.	.	.
.	.	8d	.	.	.
.	.	2e	.	.	.
*	*	*xywh-#99:105,1582,2704,378	*	*	*
1F	-men/	2f	-men/	1.a	-men/
!! cadence end; ultima=f
.	.	2c	uñ	.	.
=24	=24	=24	=24	=24	=24
1r	.	2d	mich	.	.
.	.	2e	ge-	2g	und
2r	.	2d	-heilt	2a	mich
2G	und	4r	.	2g	ge-
*	*	*	*ij	*	*
.	.	4B	uñ	.	.
=25	=25	=25	=25	=25	=25
2A	mich	2c	mich	2e	-heilt
2G	ge-	2B	ge-	4r	.
*	*	*	*	*	*ij
.	.	.	.	4g	und
2F	-heilt	2A	-heilt	2cc	mich
*	*	*	*Xij	*	*
2D	von	2f	von	2b-	ge-
=26	=26	=26	=26	=26	=26
*	*	*	*	*xywh-#39:102,1910,2702,431	*
!! cadence start
1F	o-	2c	o-	2.a	-heilt
*	*	*	*	*	*Xij
.	.	2.d	-ben	.	.
.	.	.	.	4a	von
1E	-ben	.	.	2g	o-
.	.	8c#i	.	.	.
.	.	8B	.	.	.
.	.	2c#i	.	2g	-ben
=27	=27	=27	=27	=27	=27
1D	her/	2d	.	1f#	her/
!! cadence end; ultima=d
.	.	2d	her/	.	.
2r	.	2e	und	2r	.
2G	und	2d	mich	2b	und
=28	=28	=28	=28	=28	=28
2A	mich	2c	ge-	2cc	mich
2G	ge-	2.d	-heilt	2b-	ge-
2F	-heilt	.	.	2a	-heilt
.	.	4c	.	.	.
2D	von	2f	von	2a	von
=29	=29	=29	=29	=29	=29
*	*	*xywh-#99:88,1908,2713,449	*	*	*
!! cadence start
1F	o-	2c	o-	1a	o-
.	.	2.d	-ben	.	.
1E	-ben	.	.	1g	-ben
.	.	8c#i	.	.	.
.	.	8B	.	.	.
.	.	2c#i	.	.	.
=30	=30	=30	=30	=30	=30
0Dl	her.	0dll	her.	0f#ll	her.
!! cadence end; ultima=d
==	==	==	==	==	==
*-	*-	*-	*-	*-	*-
!!!RDF**kern: l = terminal long
!!!RDF**kern: i = editorial accidental
!!!AGN: Psalm; Tricinium
!!!LIB: Ulenberg, Caspar
!!!LIB-CDT: 1548/12/24-1617/02/16
!!!YOR: https://mdz-nbn-resolving.de/details:bsb00075346
!!!YOO: München, Bayerische Staatsbibliothek
!!!URL-scan: https://www.digitale-sammlungen.de/de/view/bsb00075346?page=39 Cantus
!!!URL-scan: https://www.digitale-sammlungen.de/de/view/bsb00075346?page=99 Tenor
!!!URL-scan: https://www.digitale-sammlungen.de/de/view/bsb00075346?page=155 Bassus
!!!IIIF: https://api.digitale-sammlungen.de/iiif/presentation/v2/bsb00075346/manifest
!!!EED: Wolfgang Drescher
!!!END: 2023/03/13
!!!ENC: Wolfgang Drescher
!!!EEV: 2023/03/13
!!!title: @{ONM}. @{OTL} / <i>@{OTL-incipit@@DE}</i>